X:54
T:Cailleach a Shusa
R:jig
D:Kevin Crawford:In Good Company
M:6/8
K:G
"Am7"A2B cBc|~E3 "D7"c2A|"G"~B2G "D"AFD|"Em"~G3 BAG|
"Am7"A2B cBc|~E3 "D7"c2A|"G"BdB "D"cAF|"Em"~G3 BAG:||
"D"FGA AFd|AFd AFD|"D7"FGA AFD|"G"~G3 BAG|
"D"FGA AFd|AFD ABc|"G"BdB "D"cAF|"Em"~G3 BAG:||
"D"FGA AFA|~D3 AFD|"D7"FGA AFD|"G"~G3 BAG|
"D"FGA AFA|~D3 ABc|"G"BdB "D"cAF|"G"~G3 BAG:||
